images/Akanelogo.svg

<?xml version="1.0" encoding="UTF-8" standalone="no"?>
<!DOCTYPE svg PUBLIC "-//W3C//DTD SVG 1.1//EN" "http://www.w3.org/Graphics/SVG/1.1/DTD/svg11.dtd">
<svg width="100%" height="100%" viewBox="0 0 1920 1080" version="1.1" xmlns="http://www.w3.org/2000/svg" xmlns:xlink="http://www.w3.org/1999/xlink" xml:space="preserve" xmlns:serif="http://www.serif.com/" style="fill-rule:evenodd;clip-rule:evenodd;stroke-linejoin:round;stroke-miterlimit:2;">
    <path d="M207.71,1080l-0,-164.288c17.758,-126.498 71.261,-243.431 136.95,-343.632c-41.837,-116.962 -12.107,-365.571 139.124,-448.84c9.032,-5.022 20.806,-6.061 31.079,-2.744c10.274,3.317 17.565,10.514 19.246,18.995c7.684,39.049 15.188,149.904 68.947,185.761c106.232,-61.731 227.81,-96.784 356.944,-96.784c415.2,0 752.29,362.378 752.29,808.725c0,14.359 -0.349,28.631 -1.038,42.807l-213.902,0l0,-42.807c0,-283.587 -184.328,-520.495 -429.076,-575.308l-72.007,98.885c-8.555,11.749 -21.978,18.664 -36.233,18.668c-14.255,0.004 -27.68,-6.904 -36.242,-18.648l-72.097,-98.898c-244.733,54.826 -429.045,291.726 -429.045,575.301l-0,42.807l-214.94,0Z"/>
</svg>

<?xml version="1.0" encoding="UTF-8" standalone="no"?>
<!DOCTYPE svg PUBLIC "-//W3C//DTD SVG 1.1//EN" "http://www.w3.org/Graphics/SVG/1.1/DTD/svg11.dtd">
<svg width="100%" height="100%" viewBox="0 0 1505 962" version="1.1" xmlns="http://www.w3.org/2000/svg" xmlns:xlink="http://www.w3.org/1999/xlink" xml:space="preserve" xmlns:serif="http://www.serif.com/" style="fill-rule:evenodd;clip-rule:evenodd;stroke-linejoin:round;stroke-miterlimit:2;">
    <g transform="matrix(1,0,0,1,-207.71,-118.58)">
        <path d="M207.71,1080L207.71,915.712C225.468,789.214 278.971,672.281 344.66,572.08C302.823,455.118 332.553,206.509 483.784,123.24C492.816,118.218 504.59,117.179 514.863,120.496C525.137,123.813 532.428,131.01 534.109,139.491C541.793,178.54 549.297,289.395 603.056,325.252C709.288,263.521 830.866,228.468 960,228.468C1375.2,228.468 1712.29,590.846 1712.29,1037.19C1712.29,1051.55 1711.94,1065.82 1711.25,1080L1497.35,1080L1497.35,1037.19C1497.35,753.606 1313.02,516.698 1068.27,461.885L996.267,560.77C987.712,572.519 974.289,579.434 960.034,579.438C945.779,579.442 932.354,572.534 923.792,560.79L851.695,461.892C606.962,516.718 422.65,753.618 422.65,1037.19L422.65,1080L207.71,1080Z"/>
    </g>
</svg>
